X:1
T:Bring Them In
T:William Augustine Ogden
T:Bring Them In
T:Public Domain
T:Public Domain
C:William Augustine Ogden
Z:Public Domain
%%score ( 1 2 ) 3
L:1/8
M:4/4
K:Ab
V:1 treble 
V:2 treble 
V:3 bass 
V:1
 [CE]2 [CE]>[DF] [CE]2 [Ec]2 | [Ec]2 [EB]2 [EB]4 | [DE]2 [DE]>[DF] [DE]2 [DB]2 | %3
w: 1.~Hark! ’tis the Shep- herd’s|voice I hear|Out in the des- ert|
w: 2.~Who’ll go and help this|Shep- herd kind,|Help Him the wan- d’ring|
w: 3.~Out in the des- ert|hear their cry,|Out on the mount- ains|
 [DB]2 [CA]2 [CA]4 | [CE]2 [CE]>[DF] [CE]2 [Ec]2 | [Fc]2 [FB]2 [Fd]4 | [Fd]2 [Fc]>[FB] [EA]2 E2 | %7
w: dark and drear,|Call- ing the sheep who’ve|gone a- stray|Far from the Shep- herd’s|
w: ones to find?|Who’ll bring the lost ones|to the fold,|Where they’ll be shel- tered|
w: wild and high;|Hark! ’tis the Mas- ter|speaks to thee,|“Go find My sheep wher-|
 [Ec]3 [DB] [CA]4 ||"^Refrain" [Ec]2 [CE]2 ([Ec]2 (3EAc) | [Fd]2 [DF]2 ([Fd]2 (3FAd) | %10
w: a- way. *|||
w: the cold? *|||
w: they be.” *|||
 [Ec]2 [Ec]2 (cB) [EA]>[Ec] | [EB]2 [=DB]2 [EB]4 | [Ec]2 [CE]2 ([Ec]2 (3EAc) | %13
w: |||
w: |||
w: |||
 [Fd]2 [DF]2 ([Fd]2 (3FAd) | [Ec]2 [Ec]2 [Ec][EB] [EA]>[Ec] | [DB]4 [CA]4 |] %16
w: |||
w: |||
w: |||
V:2
 x8 | x8 | x8 | x8 | x8 | x8 | x6 E2 | x8 || x8 | x8 | x4 E2 x2 | x8 | x8 | x8 | x8 | x8 |] %16
w: ||||||fold||||||||||
w: ||||||from||||||||||
w: ||||||e’er||||||||||
V:3
 [A,,A,]2 [A,,A,]>[A,,A,] [A,,A,]2 [A,,A,]2 | [E,A,]2 [E,G,]2 [E,G,]4 | %2
w: ~ ~ ~ ~ ~|~ ~ ~|
 [E,G,]2 [E,G,]>[E,G,] [E,G,]2 [E,G,]2 | [A,,E,]2 [A,,A,]2 [A,,A,]4 | %4
w: ~ ~ ~ ~ ~|~ ~ ~|
 [A,,A,]2 [A,,A,]>[A,,A,] [A,,A,]2 [A,,A,]2 | [D,F,]2 [D,F,]2 [B,,B,]4 | %6
w: ~ ~ ~ ~ ~|~ ~ ~|
 [B,,B,]2 [C,=A,]>[D,B,] [E,C]2 [E,C]2 | [E,A,]3 [E,G,] [A,,A,]4 || [A,,A,]2 [A,,A,]2 [A,,A,]4 | %9
w: ~ ~ ~ ~ ~|~ ~ ~|Bring them in,|
 [D,A,]2 [D,A,]2 [D,A,]4 | [A,,A,]2 [A,,A,]2 ([A,,A,][B,,G,]) [C,A,]>[A,,A,] | %11
w: bring them in,|Bring them in * from the|
 [E,G,]2 [B,,F,]2 ([E,G,]2 (3D,C,B,,) | [A,,A,]2 [A,,A,]2 [A,,A,]4 | [D,A,]2 [D,A,]2 [D,A,]4 | %14
w: fields of sin; * * *|Bring them in,|bring them in,|
 [A,,A,]2 [A,,A,]2 [A,,A,][B,,G,] [C,A,]>[A,,A,] | [E,G,]4 [A,,A,]4 |] %16
w: Bring the wand- ’ring ones to|Je- sus.|

